X: 1
T: Angeline the Baker
R: Reel
M: 2/2
Q: 200
K: D
|: (dB | "D"A2)B2 d3(A | B2) d4 (dB | A2)B2 dBA2 | "G"(B6 dB |"D"A2)B2 d3e | 
f2e2 d3e |f2e2 "G"d2B2 | "A7"A3B A2 :||: (fg | "D"a2)f2 e2(de | f2)e2 d2(fg | a2)f2 e2d2 | 
"G"B3B B2(fg |"D"a2)f2 e2(de | f2)e2 d2de | f2e2 "G"d2B2 | "A7"A3B A2 :|"A (last time)"A6|]

